X:1
T:Mont Blanc, 99.99.99 D
T:Mont Blanc, 99.99.99 D
T:Adam Geibel, 1901
T:Public Domain Courtesy of the Cyber Hymnal™
C:Adam Geibel, 1901
Z:Public Domain
Z:Courtesy of the Cyber Hymnal™
%%score ( 1 2 ) ( 3 4 )
L:1/8
Q:1/4=100
M:9/8
K:C
V:1 treble 
V:2 treble 
V:3 bass 
V:4 bass 
V:1
 [CE]C[CE] | [EG]3 [EG]3 [^DA][DG][D^F] | [EG]3- [EG]2 z [EG][EA][DB] | [Cc]3 [Ec]3 [^FA][Fd][Fc] | %4
 [GB]3- [GB]2 z [GB][GA][GB] | [Gc]3 [CG]3 [CF][CE][A,D] | [B,E]3- [B,E]2 z [B,E][CE][DE] | %7
 [Cc]3 [EA]3 [^FA][FB][Fc] | [Fd]3- [Fd]2 z GGG | e3 e3 [Fd][Fc][FA] | c3- [Ec]2 z EEE | %11
 c3 c3 [Dc][DB][DE] | A3- [CA]2 z [FB][FA][FB] | c3 c3 [Ad][Ac][Ad] | e3- [=Ge]2 z [Ge][Gd][Ge] | %15
 f3 A3 [FB][FA][FG] | c3- [Ec]2 z |] %17
V:2
 x C x | x9 | x9 | x9 | x9 | x9 | x9 | x9 | x9 | (EEE) E2 E x3 | EEF x6 | (EEE E2) E x3 | CCD x6 | %13
 (E2 E) (E2 E) x3 | ^G2 G x6 | (F2 F) F2 F x3 | E2 F x3 |] %17
V:3
 [C,G,][C,E,][C,G,] | [C,C]3 [C,G,]3 [C,^F,][C,G,][C,A,] | [C,G,]3- [C,G,]2 z [C,G,][C,G,][C,G,] | %3
 [A,,E,]3 [A,,A,]3 [D,A,][D,A,][D,D] | [G,D]3- [G,D]2 z [F,D][F,D][F,D] | %5
 [E,C]3 [E,C]3 [D,A,][E,A,][F,A,] | [E,^G,]3- [E,G,]2 z [E,G,][E,A,][E,B,] | %7
 [A,,A,]3 [C,A,]3 [D,C][D,B,][D,A,] | [G,B,]3- [G,B,]2 z4 | %9
 ([C,G,][C,G,][C,G,]) [C,G,]2 [C,G,] [F,A,][F,A,][F,A,] | (G,G,A, [C,G,]2) z4 | %11
 ([A,,A,][A,,A,][A,,A,] [A,,A,]2) [A,,A,] [E,^G,][E,G,][E,G,] | %12
 (A,E,F, [A,,E,]2) z [G,D][G,C][G,D] | ([C,C]2 [C,G,]) ([C,G,]2 [C,G,]) [F,A,][F,A,][F,A,] | %14
 ([E,B,]2 [E,B,] [E,B,]2) z [A,^C][A,B,][A,C] | ([D,D]2 [D,D]) [D,D]2 [D,D] [G,D][G,C][G,B,] | %16
 (C2 A, [C,G,]2) z |] %17
V:4
 x3 | x9 | x9 | x9 | x9 | x9 | x9 | x9 | x9 | x9 | C,3- x6 | x9 | A,,3- x6 | x9 | x9 | x9 | %16
 C,3- x3 |] %17

